X:1
T:Springleik in C
Z:2005 Brian Wilson (#196a, from sheet music from Laura)
M:3/4
L:1/8
K:C
||: v(G2 {f}g2) ({a}g/^f/g) | (a2 a/2)f3/2 u([df]e/f/) | (g2 e2) c3/2 B>A
|   G3/2(c/ (3B)c2 d(B/d/) | c2 (eg) {a}(g/^f/g) | {g}a2 (ef (3def)
|   (g2 e)c B>A | (G/A/B) {B}c4 :|
|: (A2 A)F {EF}((3EDE) | C3/2 (c/2 B/2)c3/2 (3d(ef)
| {f}e2 ((3g^fg) (3a(g=f) | ((3edc B)c (3d(Bd)
| c2 (A<F) {EF}((3EDE) | C3/2 (c/2 B/2)c3/2 (3d(ef)
| {f}e2 ((3g^fg) (3a(g=f) | ((3ede) {B}c4 :||
